z_dist/img/icons/user.svg

<svg width="25" height="25" viewBox="0 0 25 25" fill="none" xmlns="http://www.w3.org/2000/svg">
<g clip-path="url(#clip0_100_31)">
<path d="M2.5 25C2.5 22.4741 3.5034 20.0517 5.28946 18.2656C7.07552 16.4796 9.49794 15.4762 12.0238 15.4762C14.5497 15.4762 16.9721 16.4796 18.7582 18.2656C20.5442 20.0517 21.5476 22.4741 21.5476 25H19.1667C19.1667 23.1056 18.4141 21.2888 17.0746 19.9492C15.735 18.6097 13.9182 17.8571 12.0238 17.8571C10.1294 17.8571 8.31259 18.6097 6.97305 19.9492C5.6335 21.2888 4.88095 23.1056 4.88095 25H2.5ZM12.0238 14.2857C8.07738 14.2857 4.88095 11.0893 4.88095 7.14286C4.88095 3.19643 8.07738 0 12.0238 0C15.9702 0 19.1667 3.19643 19.1667 7.14286C19.1667 11.0893 15.9702 14.2857 12.0238 14.2857ZM12.0238 11.9048C14.6548 11.9048 16.7857 9.77381 16.7857 7.14286C16.7857 4.5119 14.6548 2.38095 12.0238 2.38095C9.39286 2.38095 7.2619 4.5119 7.2619 7.14286C7.2619 9.77381 9.39286 11.9048 12.0238 11.9048Z" fill="white"/>
</g>
<defs>
<clipPath id="clip0_100_31">
<rect width="25" height="25" fill="white"/>
</clipPath>
</defs>
</svg>

<svg width="25" height="25" fill="none" xmlns="http://www.w3.org/2000/svg"><g clip-path="url(#clip0_100_31)"><path d="M2.5 25a9.524 9.524 0 0119.048 0h-2.381A7.143 7.143 0 004.88 25H2.5zm9.524-10.714A7.14 7.14 0 014.88 7.143 7.14 7.14 0 0112.024 0a7.14 7.14 0 017.143 7.143 7.14 7.14 0 01-7.143 7.143zm0-2.381a4.76 4.76 0 004.762-4.762 4.76 4.76 0 00-4.762-4.762 4.76 4.76 0 00-4.762 4.762 4.76 4.76 0 004.762 4.762z" fill="#fff"/></g><defs><clipPath id="clip0_100_31"><path fill="#fff" d="M0 0h25v25H0z"/></clipPath></defs></svg>
